docs/.gitbook/assets/icon-temperature-16@light.svg

<svg width="32" height="32" viewBox="0 0 16 16" fill="none" xmlns="http://www.w3.org/2000/svg">
<rect x="0" y="0" width="16" height="16" fill="#fff"/>
<path fill-rule="evenodd" clip-rule="evenodd" d="M7 2.5C6.44772 2.5 6 2.94772 6 3.5V8.26091C6 8.5166 5.86973 8.75468 5.65439 8.89255C4.95855 9.33804 4.5 10.1157 4.5 11C4.5 12.3807 5.61929 13.5 7 13.5C8.38071 13.5 9.5 12.3807 9.5 11C9.5 10.1157 9.04145 9.33804 8.34561 8.89255C8.13027 8.75468 8 8.5166 8 8.26091V3.5C8 2.94772 7.55228 2.5 7 2.5ZM4.5 3.5C4.5 2.11929 5.61929 1 7 1C8.38071 1 9.5 2.11929 9.5 3.5V7.87739C10.4133 8.60958 11 9.73609 11 11C11 13.2091 9.20914 15 7 15C4.79086 15 3 13.2091 3 11C3 9.73609 3.58665 8.60958 4.5 7.87739V3.5ZM11 2.75C11 2.33579 11.3358 2 11.75 2H12.25C12.6642 2 13 2.33579 13 2.75C13 3.16421 12.6642 3.5 12.25 3.5H11.75C11.3358 3.5 11 3.16421 11 2.75ZM11 5.75C11 5.33579 11.3358 5 11.75 5H12.25C12.6642 5 13 5.33579 13 5.75C13 6.16421 12.6642 6.5 12.25 6.5H11.75C11.3358 6.5 11 6.16421 11 5.75Z" fill="#000"/>
</svg>

<svg xmlns="http://www.w3.org/2000/svg" width="32" height="32" fill="none" viewBox="0 0 16 16"><path fill="#fff" d="M0 0h16v16H0z"/><path fill="#000" fill-rule="evenodd" d="M7 2.5a1 1 0 0 0-1 1v4.76a.75.75 0 0 1-.346.633 2.5 2.5 0 1 0 2.691 0A.75.75 0 0 1 8 8.26V3.5a1 1 0 0 0-1-1m-2.5 1a2.5 2.5 0 0 1 5 0v4.377a4 4 0 1 1-5 0zm6.5-.75a.75.75 0 0 1 .75-.75h.5a.75.75 0 0 1 0 1.5h-.5a.75.75 0 0 1-.75-.75m0 3a.75.75 0 0 1 .75-.75h.5a.75.75 0 0 1 0 1.5h-.5a.75.75 0 0 1-.75-.75" clip-rule="evenodd"/></svg>
